build/img/features3.svg

<svg width="270" height="268" fill="none" xmlns="http://www.w3.org/2000/svg"><path d="M135.24 232.24l-45.58 32.18-14.38-54.17-55.46-4.86 23.55-50.81L4 114.95l50.45-23.68-4.87-55.86 53.75 14.54L135.24 4l31.91 45.95 53.76-14.54-4.88 55.86 50.46 23.68-39.38 39.63 23.55 50.81-55.45 4.86-14.39 54.17-45.58-32.18z" fill="#FFD400" stroke="#000" stroke-width="7" stroke-linecap="round" stroke-linejoin="round"/></svg>

<svg width="270" height="268" viewBox="0 0 270 268" fill="none" xmlns="http://www.w3.org/2000/svg">
<path d="M135.24 232.24L89.66 264.42L75.28 210.25L19.82 205.39L43.37 154.58L4 114.95L54.45 91.27L49.58 35.41L103.33 49.95L135.24 4L167.15 49.95L220.91 35.41L216.03 91.27L266.49 114.95L227.11 154.58L250.66 205.39L195.21 210.25L180.82 264.42L135.24 232.24Z" fill="#FFD400" stroke="black" stroke-width="7" stroke-linecap="round" stroke-linejoin="round"/>
</svg>
